fa/svgs/regular/heart.svg

<svg xmlns="http://www.w3.org/2000/svg" viewBox="0 0 512 512"><!--! Font Awesome Free 6.1.1 by @fontawesome - https://fontawesome.com License - https://fontawesome.com/license/free (Icons: CC BY 4.0, Fonts: SIL OFL 1.1, Code: MIT License) Copyright 2022 Fonticons, Inc.--><path d="m244 84 11.1 12 12-11.98C300.6 51.37 347 36.51 392.6 44.1c68.9 11.48 119.4 71.1 119.4 141v5.8c0 41.5-17.2 81.2-47.6 109.5L283.7 469.1c-7.5 7-17.4 10.9-27.7 10.9s-20.2-3.9-27.7-10.9L47.59 300.4C17.23 272.1 0 232.4 0 190.9v-5.8c0-69.9 50.52-129.52 119.4-141 44.7-7.59 92 7.27 124.6 39.9-.9 0 0 .01 0 0zm11.1 79.9-45-46.8c-21.7-20.82-52.5-30.7-82.8-25.66C81.55 99.07 48 138.7 48 185.1v5.8c0 28.2 11.71 55.2 32.34 74.4L256 429.3l175.7-164c20.6-19.2 32.3-46.2 32.3-74.4v-5.8c0-46.4-33.6-86.03-79.3-93.66-30.3-5.04-61.1 4.84-82.8 25.66l-46.8 46.8z"/></svg>

<svg xmlns="http://www.w3.org/2000/svg" viewBox="0 0 512 512"><!--! Font Awesome Free 6.2.1 by @fontawesome - https://fontawesome.com License - https://fontawesome.com/license/free (Icons: CC BY 4.0, Fonts: SIL OFL 1.1, Code: MIT License) Copyright 2022 Fonticons, Inc. --><path d="M244 84L255.1 96L267.1 84.02C300.6 51.37 347 36.51 392.6 44.1C461.5 55.58 512 115.2 512 185.1V190.9C512 232.4 494.8 272.1 464.4 300.4L283.7 469.1C276.2 476.1 266.3 480 256 480C245.7 480 235.8 476.1 228.3 469.1L47.59 300.4C17.23 272.1 0 232.4 0 190.9V185.1C0 115.2 50.52 55.58 119.4 44.1C164.1 36.51 211.4 51.37 244 84C243.1 84 244 84.01 244 84L244 84zM255.1 163.9L210.1 117.1C188.4 96.28 157.6 86.4 127.3 91.44C81.55 99.07 48 138.7 48 185.1V190.9C48 219.1 59.71 246.1 80.34 265.3L256 429.3L431.7 265.3C452.3 246.1 464 219.1 464 190.9V185.1C464 138.7 430.4 99.07 384.7 91.44C354.4 86.4 323.6 96.28 301.9 117.1L255.1 163.9z"/></svg>
